templates/flag_icons/me.svg

<?xml version="1.0" encoding="UTF-8" standalone="no"?>
<svg width="23px" height="17px" viewBox="0 0 23 17" version="1.1" xmlns="http://www.w3.org/2000/svg" xmlns:xlink="http://www.w3.org/1999/xlink">
    <!-- Generator: Sketch 3.7.2 (28276) - http://www.bohemiancoding.com/sketch -->
    <title>ME</title>
    <desc>Created with Sketch.</desc>
    <defs>
        <linearGradient x1="50%" y1="0%" x2="50%" y2="100%" id="linearGradient-1">
            <stop stop-color="#FFFFFF" offset="0%"></stop>
            <stop stop-color="#F0F0F0" offset="100%"></stop>
        </linearGradient>
        <rect id="path-2" x="0" y="0" width="21" height="15" rx="1.5"></rect>
        <filter x="-50%" y="-50%" width="200%" height="200%" filterUnits="objectBoundingBox" id="filter-4">
            <feOffset dx="0" dy="0.5" in="SourceAlpha" result="shadowOffsetOuter1"></feOffset>
            <feGaussianBlur stdDeviation="0.5" in="shadowOffsetOuter1" result="shadowBlurOuter1"></feGaussianBlur>
            <feColorMatrix values="0 0 0 0 0   0 0 0 0 0   0 0 0 0 0  0 0 0 0.16 0" type="matrix" in="shadowBlurOuter1"></feColorMatrix>
        </filter>
        <linearGradient x1="50%" y1="0%" x2="50%" y2="100%" id="linearGradient-5">
            <stop stop-color="#E6BE53" offset="0%"></stop>
            <stop stop-color="#D3AD46" offset="100%"></stop>
        </linearGradient>
        <rect id="path-6" x="0" y="0" width="21" height="15"></rect>
        <filter x="-50%" y="-50%" width="200%" height="200%" filterUnits="objectBoundingBox" id="filter-7">
            <feOffset dx="0" dy="0.5" in="SourceAlpha" result="shadowOffsetOuter1"></feOffset>
            <feGaussianBlur stdDeviation="0.5" in="shadowOffsetOuter1" result="shadowBlurOuter1"></feGaussianBlur>
            <feColorMatrix values="0 0 0 0 0   0 0 0 0 0   0 0 0 0 0  0 0 0 0.16 0" type="matrix" in="shadowBlurOuter1"></feColorMatrix>
        </filter>
        <linearGradient x1="50%" y1="0%" x2="50%" y2="100%" id="linearGradient-8">
            <stop stop-color="#E01826" offset="0%"></stop>
            <stop stop-color="#C30A17" offset="100%"></stop>
        </linearGradient>
        <path d="M10.1473122,5.14731216 C10.3420963,5.34209628 10.6582031,5.34179688 10.8526878,5.14731216 L10.6473122,5.35268784 C10.8420963,5.15790372 11.15625,4.84375 11.3497515,4.65024853 L11.6502485,4.34975147 C11.8434109,4.15658907 12.1928101,4.09640503 12.453186,4.22659302 L12.546814,4.27340698 C12.7971017,4.39855085 12.8417969,4.65820313 12.6473122,4.85268784 L12.8526878,4.64731216 C12.6579037,4.84209628 12.34375,5.15625 12.1502485,5.34975147 L11.8497515,5.65024853 C11.6565891,5.84341093 11.596405,6.19281006 11.726593,6.45318604 L11.773407,6.54681396 C11.8985509,6.7971017 12,7.22659302 12,7.5 L12,7 C12,7.27614237 12.1928101,7.40359497 12.453186,7.27340698 L12.546814,7.22659302 C12.7971017,7.10144915 12.8417969,6.84179688 12.6473122,6.64731216 L12.8526878,6.85268784 C12.6579037,6.65790372 12.6582031,6.34179688 12.8526878,6.14731216 L12.6473122,6.35268784 C12.8420963,6.15790372 13.096405,5.80718994 13.226593,5.54681396 L13.273407,5.45318604 C13.3985509,5.2028983 13.5535088,4.78596497 13.6210361,4.51585579 L13.8789639,3.48414421 C13.9458103,3.21675875 14.1384277,3.18457031 14.3035474,3.40472984 L15.1964526,4.59527016 C15.3640972,4.81879628 15.5,5.21403503 15.5,5.50468445 L15.5,6.49531555 C15.5,6.77404508 15.403595,7.19281006 15.273407,7.45318604 L15.226593,7.54681396 C15.1014491,7.7971017 14.84375,8.15625 14.6502485,8.34975147 L14.3497515,8.65024853 C14.1565891,8.84341093 13.8071899,9.09640503 13.546814,9.22659302 L13.453186,9.27340698 C13.2028983,9.39855085 12.7680664,9.5 12.5,9.5 C12.2238576,9.5 12.1928101,9.59640503 12.453186,9.72659302 L12.546814,9.77340698 C12.7971017,9.89855085 13.1582031,10.1582031 13.3526878,10.3526878 L13.1473122,10.1473122 C13.3420963,10.3420963 13.6582031,10.3417969 13.8526878,10.1473122 L13.6473122,10.3526878 C13.8420963,10.1579037 14.1582031,10.1582031 14.3526878,10.3526878 L14.1473122,10.1473122 C14.3420963,10.3420963 14.403595,10.6928101 14.273407,10.953186 L14.226593,11.046814 C14.1014491,11.2971017 13.7680664,11.5 13.5,11.5 C13.2238576,11.5 12.8071899,11.403595 12.546814,11.273407 L12.453186,11.226593 C12.2028983,11.1014491 11.903595,10.8071899 11.773407,10.546814 L11.726593,10.453186 C11.6014491,10.2028983 11.3417969,10.1582031 11.1473122,10.3526878 L11.3526878,10.1473122 C11.1579037,10.3420963 11.1226196,10.6839294 11.2732544,10.9098816 L11.7267456,11.5901184 C11.8776598,11.8164898 11.8160706,12.1226196 11.5901184,12.2732544 L10.9098816,12.7267456 C10.6835102,12.8776598 10.3160706,12.8773804 10.0901184,12.7267456 L9.40988159,12.2732544 C9.18351024,12.1223402 9.12261963,11.8160706 9.27325439,11.5901184 L9.72674561,10.9098816 C9.87765984,10.6835102 9.84179688,10.3417969 9.64731216,10.1473122 L9.85268784,10.3526878 C9.65790372,10.1579037 9.40359497,10.1928101 9.27340698,10.453186 L9.22659302,10.546814 C9.10144915,10.7971017 8.80718994,11.096405 8.54681396,11.226593 L8.45318604,11.273407 C8.2028983,11.3985509 7.76806641,11.5 7.5,11.5 C7.22385763,11.5 6.90359497,11.3071899 6.77340698,11.046814 L6.72659302,10.953186 C6.60144915,10.7028983 6.65820312,10.3417969 6.85268784,10.1473122 L6.64731216,10.3526878 C6.84209628,10.1579037 7.15820312,10.1582031 7.35268784,10.3526878 L7.14731216,10.1473122 C7.34209628,10.3420963 7.65820312,10.3417969 7.85268784,10.1473122 L7.64731216,10.3526878 C7.84209628,10.1579037 8.19281006,9.90359497 8.45318604,9.77340698 L8.54681396,9.72659302 C8.7971017,9.60144915 8.76806641,9.5 8.5,9.5 C8.22385763,9.5 7.80718994,9.40359497 7.54681396,9.27340698 L7.45318604,9.22659302 C7.2028983,9.10144915 6.84375,8.84375 6.65024853,8.65024853 L6.34975147,8.34975147 C6.15658907,8.15658907 5.90359497,7.80718994 5.77340698,7.54681396 L5.72659302,7.45318604 C5.60144915,7.2028983 5.5,6.78596497 5.5,6.49531555 L5.5,5.50468445 C5.5,5.22595492 5.63842773,4.81542969 5.80354738,4.59527016 L6.69645262,3.40472984 C6.86409721,3.18120372 7.05350876,3.21403503 7.12103605,3.48414421 L7.37896395,4.51585579 C7.44581031,4.78324125 7.59640503,5.19281006 7.72659302,5.45318604 L7.77340698,5.54681396 C7.89855085,5.7971017 8.15820312,6.15820313 8.35268784,6.35268784 L8.14731216,6.14731216 C8.34209628,6.34209628 8.34179688,6.65820313 8.14731216,6.85268784 L8.35268784,6.64731216 C8.15790372,6.84209628 8.19281006,7.09640503 8.45318604,7.22659302 L8.54681396,7.27340698 C8.7971017,7.39855085 9,7.27340698 9,7 L9,7.5 C9,7.22385763 9.09640503,6.80718994 9.22659302,6.54681396 L9.27340698,6.45318604 C9.39855085,6.2028983 9.34375,5.84375 9.15024853,5.65024853 L8.84975147,5.34975147 C8.65658907,5.15658907 8.34179688,4.84179688 8.14731216,4.64731216 L8.35268784,4.85268784 C8.15790372,4.65790372 8.19281006,4.40359497 8.45318604,4.27340698 L8.54681396,4.22659302 C8.7971017,4.10144915 9.15625,4.15625 9.34975147,4.34975147 L9.65024853,4.65024853 C9.84341093,4.84341093 10.1582031,5.15820313 10.3526878,5.35268784 L10.1473122,5.14731216 Z M9.34975147,3.34975147 C9.15658907,3.15658907 9.20856857,2.93047714 9.47460938,2.84179688 L10.0253906,2.65820313 C10.2875101,2.57082995 10.7085686,2.56952286 10.9746094,2.65820313 L11.5253906,2.84179688 C11.7875101,2.92917005 11.84375,3.15625 11.6502485,3.34975147 L11.3497515,3.65024853 C11.1565891,3.84341093 10.7680664,4 10.5,4 C10.2238576,4 9.84375,3.84375 9.65024853,3.65024853 L9.34975147,3.34975147 Z" id="path-9"></path>
        <filter x="-50%" y="-50%" width="200%" height="200%" filterUnits="objectBoundingBox" id="filter-10">
            <feOffset dx="0" dy="0.5" in="SourceAlpha" result="shadowOffsetOuter1"></feOffset>
            <feColorMatrix values="0 0 0 0 0   0 0 0 0 0   0 0 0 0 0  0 0 0 0.06 0" type="matrix" in="shadowOffsetOuter1"></feColorMatrix>
        </filter>
    </defs>
    <g id="Flag-Kit" stroke="none" stroke-width="1" fill="none" fill-rule="evenodd">
        <g id="ME">
            <g id="AE-Copy-2" transform="translate(1.000000, 1.000000)">
                <mask id="mask-3" fill="white">
                    <use xlink:href="#path-2"></use>
                </mask>
                <g id="Mask">
                    <use fill="black" fill-opacity="1" filter="url(#filter-4)" xlink:href="#path-2"></use>
                    <use fill="url(#linearGradient-1)" fill-rule="evenodd" xlink:href="#path-2"></use>
                </g>
                <g id="Mask-Copy" mask="url(#mask-3)">
                    <use fill="black" fill-opacity="1" filter="url(#filter-7)" xlink:href="#path-6"></use>
                    <use fill="url(#linearGradient-5)" fill-rule="evenodd" xlink:href="#path-6"></use>
                </g>
                <rect id="Rectangle-2" fill="url(#linearGradient-8)" mask="url(#mask-3)" x="1" y="1" width="19" height="13" rx="0.75"></rect>
                <g id="Line" mask="url(#mask-3)">
                    <use fill="black" fill-opacity="1" filter="url(#filter-10)" xlink:href="#path-9"></use>
                    <use fill="url(#linearGradient-5)" fill-rule="evenodd" xlink:href="#path-9"></use>
                </g>
                <path d="M9.5,9.00574269 C9.5,9.27871347 9.57596016,9.29143143 9.68457031,9.02539062 C9.68457031,9.02539062 10,8 10.5,8 C11,8 11.3225133,9.04180002 11.3225133,9.04180002 C11.4205365,9.29485688 11.5,9.27817278 11.5,8.99464673 L11.5,8.5 C11.5,7.67157288 11.0522847,7 10.5,7 C9.94771525,7 9.5,7.67157288 9.5,8.5 L9.5,9.00574269 Z" id="Oval-205" fill="#215F90" mask="url(#mask-3)"></path>
                <rect id="Depth" mask="url(#mask-3)" x="0" y="0" width="21" height="15" rx="1.5"></rect>
            </g>
        </g>
    </g>
</svg>

<svg width="23" height="17" viewBox="0 0 23 17" xmlns="http://www.w3.org/2000/svg" xmlns:xlink="http://www.w3.org/1999/xlink"><title>ME</title><defs><linearGradient x1="50%" y1="0%" x2="50%" y2="100%" id="c"><stop stop-color="#FFF" offset="0%"/><stop stop-color="#F0F0F0" offset="100%"/></linearGradient><rect id="a" width="21" height="15" rx="1.5"/><filter x="-50%" y="-50%" width="200%" height="200%" filterUnits="objectBoundingBox" id="b"><feOffset dy=".5" in="SourceAlpha" result="shadowOffsetOuter1"/><feGaussianBlur stdDeviation=".5" in="shadowOffsetOuter1" result="shadowBlurOuter1"/><feColorMatrix values="0 0 0 0 0 0 0 0 0 0 0 0 0 0 0 0 0 0 0.16 0" in="shadowBlurOuter1"/></filter><linearGradient x1="50%" y1="0%" x2="50%" y2="100%" id="g"><stop stop-color="#E6BE53" offset="0%"/><stop stop-color="#D3AD46" offset="100%"/></linearGradient><path id="f" d="M0 0h21v15H0z"/><filter x="-50%" y="-50%" width="200%" height="200%" filterUnits="objectBoundingBox" id="e"><feOffset dy=".5" in="SourceAlpha" result="shadowOffsetOuter1"/><feGaussianBlur stdDeviation=".5" in="shadowOffsetOuter1" result="shadowBlurOuter1"/><feColorMatrix values="0 0 0 0 0 0 0 0 0 0 0 0 0 0 0 0 0 0 0.16 0" in="shadowBlurOuter1"/></filter><linearGradient x1="50%" y1="0%" x2="50%" y2="100%" id="h"><stop stop-color="#E01826" offset="0%"/><stop stop-color="#C30A17" offset="100%"/></linearGradient><path d="M10.15 5.15c.2.2.5.2.7 0l-.2.2.7-.7.3-.3c.2-.2.54-.25.8-.12l.1.04c.25.13.3.39.1.58l.2-.2-.7.7-.3.3c-.2.2-.25.54-.12.8l.04.1c.13.25.23.68.23.95V7c0 .28.2.4.45.27l.1-.04c.25-.13.3-.39.1-.58l.2.2a.5.5 0 0 1 0-.7l-.2.2c.2-.2.45-.54.58-.8l.04-.1c.13-.25.28-.66.35-.93l.26-1.04c.07-.26.26-.3.42-.08l.9 1.2c.16.22.3.61.3.9v1c0 .27-.1.7-.23.95l-.04.1c-.13.25-.39.6-.58.8l-.3.3c-.2.2-.54.45-.8.58l-.1.04c-.25.13-.68.23-.95.23-.28 0-.3.1-.05.23l.1.04c.25.13.6.39.8.58l-.2-.2c.2.2.5.2.7 0l-.2.2c.2-.2.5-.2.7 0l-.2-.2c.2.2.25.54.12.8l-.04.1a.9.9 0 0 1-.73.45c-.28 0-.7-.1-.95-.23l-.1-.04a1.74 1.74 0 0 1-.68-.68l-.04-.1c-.13-.25-.39-.3-.58-.1l.2-.2c-.2.2-.23.53-.08.76l.46.68a.5.5 0 0 1-.14.68l-.68.46a.8.8 0 0 1-.82 0l-.68-.46a.5.5 0 0 1-.14-.68l.46-.68a.63.63 0 0 0-.08-.76l.2.2c-.2-.2-.45-.16-.58.1l-.04.1c-.13.25-.42.55-.68.68l-.1.04c-.25.13-.68.23-.95.23a.9.9 0 0 1-.73-.45l-.04-.1a.74.74 0 0 1 .12-.8l-.2.2c.2-.2.5-.2.7 0l-.2-.2c.2.2.5.2.7 0l-.2.2c.2-.2.54-.45.8-.58l.1-.04c.25-.13.22-.23-.05-.23-.28 0-.7-.1-.95-.23l-.1-.04a4.2 4.2 0 0 1-.8-.58l-.3-.3c-.2-.2-.45-.54-.58-.8l-.04-.1a2.49 2.49 0 0 1-.23-.95v-1c0-.27.14-.68.3-.9l.9-1.2c.16-.22.35-.19.42.08l.26 1.04c.07.26.22.67.35.93l.04.1c.13.25.39.6.58.8l-.2-.2c.2.2.2.5 0 .7l.2-.2c-.2.2-.16.45.1.58l.1.04C8.8 7.4 9 7.27 9 7v.5c0-.28.1-.7.23-.95l.04-.1a.74.74 0 0 0-.12-.8l-.3-.3-.7-.7.2.2c-.2-.2-.16-.45.1-.58l.1-.04c.25-.13.6-.07.8.12l.3.3.7.7-.2-.2zm-.8-1.8c-.2-.2-.14-.42.12-.5l.56-.2c.26-.08.68-.08.94 0l.56.2c.26.08.31.3.12.5l-.3.3c-.2.2-.58.35-.85.35-.28 0-.66-.16-.85-.35l-.3-.3z" id="j"/><filter x="-50%" y="-50%" width="200%" height="200%" filterUnits="objectBoundingBox" id="i"><feOffset dy=".5" in="SourceAlpha" result="shadowOffsetOuter1"/><feColorMatrix values="0 0 0 0 0 0 0 0 0 0 0 0 0 0 0 0 0 0 0.06 0" in="shadowOffsetOuter1"/></filter></defs><g transform="translate(1 1)" fill="none" fill-rule="evenodd"><mask id="d" fill="#fff"><use xlink:href="#a"/></mask><use fill="#000" filter="url(#b)" xlink:href="#a"/><use fill="url(#c)" xlink:href="#a"/><g mask="url(#d)"><use fill="#000" filter="url(#e)" xlink:href="#f"/><use fill="url(#g)" xlink:href="#f"/></g><rect fill="url(#h)" mask="url(#d)" x="1" y="1" width="19" height="13" rx=".75"/><g mask="url(#d)"><use fill="#000" filter="url(#i)" xlink:href="#j"/><use fill="url(#g)" xlink:href="#j"/></g><path d="M9.5 9c0 .28.08.3.18.03 0 0 .32-1.03.82-1.03.5 0 .82 1.04.82 1.04.1.25.18.24.18-.05V8.5c0-.83-.45-1.5-1-1.5s-1 .67-1 1.5V9z" fill="#215F90" mask="url(#d)"/><rect mask="url(#d)" width="21" height="15" rx="1.5"/></g></svg>
